Hatter-kde/actions/22/kt-queue-manager.svg

<?xml version="1.0" encoding="UTF-8"?>
<svg viewBox="0 0 22 22" xmlns="http://www.w3.org/2000/svg">
 <defs id="defs3051">
  <style id="current-color-scheme" type="text/css">.ColorScheme-Text {
        color:#363636;
      }
      .ColorScheme-Highlight {
        color:#3daee9;
      }</style>
 </defs>
 <path class="ColorScheme-Text" d="m10 3v1h9v-1h-9zm0 2v1h6v-1h-6zm0 4v1h9v-1h-9zm0 2v1h2v-1h-2zm0 4v1h9v-1h-9zm0 2v1h6v-1h-6zm7 1v1h2v-1h-2z" fill="currentColor"/>
 <path class="ColorScheme-Highlight" d="m4 3v1h1v2h-1v1h3v-1h-1v-2h1v-1h-3zm-1 6v1h1v2h-1v1h5v-1h-1v-2h1v-1h-5zm2 1h1v2h-1v-2z" fill="currentColor"/>
</svg>

<svg xmlns="http://www.w3.org/2000/svg" viewBox="0 0 22 22">
  <defs id="defs3051">
    <style type="text/css" id="current-color-scheme">
      .ColorScheme-Text {
        color:#363636;
      }
      .ColorScheme-Highlight {
        color:#3daee9;
      }
      </style>
  </defs>
 <path 
     style="fill:currentColor;fill-opacity:1;stroke:none" 
     d="M 10 3 L 10 4 L 19 4 L 19 3 L 10 3 z M 10 5 L 10 6 L 16 6 L 16 5 L 10 5 z M 10 9 L 10 10 L 19 10 L 19 9 L 10 9 z M 10 11 L 10 12 L 12 12 L 12 11 L 10 11 z M 10 15 L 10 16 L 19 16 L 19 15 L 10 15 z M 10 17 L 10 18 L 16 18 L 16 17 L 10 17 z M 17 18 L 17 19 L 19 19 L 19 18 L 17 18 z "
     class="ColorScheme-Text"
     />
 <path 
     style="fill:currentColor;fill-opacity:1;stroke:none" 
     d="M 4 3 L 4 4 L 5 4 L 5 6 L 4 6 L 4 7 L 7 7 L 7 6 L 6 6 L 6 4 L 7 4 L 7 3 L 4 3 z M 3 9 L 3 10 L 4 10 L 4 12 L 3 12 L 3 13 L 8 13 L 8 12 L 7 12 L 7 10 L 8 10 L 8 9 L 3 9 z M 5 10 L 6 10 L 6 12 L 5 12 L 5 10 z "
     class="ColorScheme-Highlight"
     />
</svg>
